Breeze Round Light/actions/16/edit-table-cell-split.svg

<svg xmlns="http://www.w3.org/2000/svg" viewBox="0 0 16 16">
  <defs id="defs3051">
    <style type="text/css" id="current-color-scheme">.ColorScheme-Text {color:#fcfcfc;}.ColorScheme-Highlight {color:#3daee9;}.ColorScheme-NegativeText {color:#da4453;}</style>
  </defs>
  <g
     transform="translate(-421.71429,-531.79074)">
  <path 
        style="fill:currentColor;fill-opacity:1;stroke:none"
        d="M 4,2 C 4,2 2,2 2,4 v 8 c 0,2 2,2 2,2 h 5 1 2 c 0,0 2,0 2,-2 0,0 0.136415,-6 0.06821,-8 C 14,2 12,2 12,2 Z M 4,3 H 6 V 5 H 7 V 3 h 2 v 2 h 1 V 3 h 1 1 c 0,0 1,0 1.003227,1 C 13.006453,5 13,5 13,5 h -1 -1 -1 v 1 h 1 1 1 v 3 h -1 -1 -1 v 1 h 1 1 1 v 2 c 0,1 -1,1 -1,1 H 11 10 V 10 H 9 v 3 H 7 V 10 H 6 v 3 H 4 C 4,13 3,13 3,12 V 10 H 6 V 9 H 3 V 6 H 6 V 5 H 3 V 4 C 3,3 4,3 4,3 Z"
        class="ColorScheme-Text"
      transform="translate(421.71429,531.79074)"
        />
  <path
     d="m 426.71429,535.79074 0,7 6,0 0,-7 z m 1,1 4,0 0,1 -1,1.5 1,1.5 0,1 -4,0 0,-1 1,-1.5 -1,-1.5 z"
      style="fill:currentColor;fill-opacity:1;stroke:none" 
     class="ColorScheme-NegativeText"
     
      />
  </g>
</svg>

<svg xmlns="http://www.w3.org/2000/svg" viewBox="0 0 16 16">
  <defs id="defs3051">
    <style type="text/css" id="current-color-scheme">
      .ColorScheme-Text {
        color:#232629;
      }
      .ColorScheme-Highlight {
        color:#3daee9;
      }
      .ColorScheme-NegativeText {
        color:#da4453;
      }
      </style>
  </defs>
  <g
     transform="translate(-421.71429,-531.79074)">
  <path 
        style="fill:currentColor;fill-opacity:1;stroke:none"
        d="M 2 2 L 2 14 L 3 14 L 9 14 L 10 14 L 13 14 L 14 14 L 14 2 L 2 2 z M 3 3 L 6 3 L 6 5 L 7 5 L 7 3 L 9 3 L 9 5 L 10 5 L 10 3 L 11 3 L 12 3 L 13 3 L 13 5 L 12 5 L 11 5 L 10 5 L 10 6 L 11 6 L 12 6 L 13 6 L 13 9 L 12 9 L 11 9 L 10 9 L 10 10 L 11 10 L 12 10 L 13 10 L 13 13 L 12 13 L 11 13 L 10 13 L 10 10 L 9 10 L 9 13 L 7 13 L 7 10 L 6 10 L 6 13 L 3 13 L 3 10 L 6 10 L 6 9 L 3 9 L 3 6 L 6 6 L 6 5 L 3 5 L 3 3 z "
        class="ColorScheme-Text"
      transform="translate(421.71429,531.79074)"
        />
  <path
     d="m 426.71429,535.79074 0,7 6,0 0,-7 z m 1,1 4,0 0,1 -1,1.5 1,1.5 0,1 -4,0 0,-1 1,-1.5 -1,-1.5 z"
      style="fill:currentColor;fill-opacity:1;stroke:none" 
     class="ColorScheme-NegativeText"
     
      />
  </g>
</svg>
